src/svgs/male-candidate.svg

<svg xmlns="http://www.w3.org/2000/svg" viewBox="0 0 24 24" width="512" height="512"><path d="M18 15H6v-2.8A2.184 2.184 0 018.166 10h7.668A2.184 2.184 0 0118 12.2zM2 16l1 5h2v-2h14v2h2l1-5zm14.877-8.129l1.212.487a.6.6 0 00.619-.106c.792.2.892.715.892 1V15h.7V8.95c0-.674-.464-.977-1.3-1.355a.6.6 0 00-.376-.566l-1.212-.487a.6.6 0 00-.781.333l-.087.216a.6.6 0 00.333.78zM12 9a3 3 0 10-3-3 3 3 0 003 3z"/></svg>

<svg xmlns="http://www.w3.org/2000/svg" viewBox="0 0 24 24"><path d="M18,15H6V12.2A2.184,2.184,0,0,1,8.166,10h7.668A2.184,2.184,0,0,1,18,12.2ZM2,16l1,5H5V19H19v2h2l1-5ZM16.877,7.871l1.212.487a.6.6,0,0,0,.619-.106c.792.2.892.715.892,1V15h.7V8.95c0-.674-.464-.977-1.3-1.355a.6.6,0,0,0-.376-.566l-1.212-.487a.6.6,0,0,0-.781.333l-.087.216A.6.6,0,0,0,16.877,7.871ZM12,9A3,3,0,1,0,9,6,3,3,0,0,0,12,9Z"/></svg>
